X:1
T:Tanz der seligen Geister
T:Menuet
T:Tanz der seligen Geister
T:from the opera Orfeo ed Euridice
T:Chr. W. Gluck (1714 - 1787)
T:© Peter Corbey
T:© Peter Corbey
C:Chr. W. Gluck (1714 - 1787)
Z:© Peter Corbey
%%score 1 { ( 2 3 ) | ( 4 5 ) }
L:1/8
Q:1/4=76
M:3/4
K:G
V:1 treble nm="Dwarsfluit" snm="Fl."
V:2 treble nm="Piano"
V:3 treble 
V:4 bass 
V:5 bass 
V:1
!p!"^Menuet"!<(! d2 (Bc dg)!<)! |!>(! (g2 f2 e2)!>)! | d2 (ed cd) | (c2 B2 A2) | .g2 (B2 e2) | %5
 .d2 (F2 G2) |!<(! (Ac) B2 (AG)!<)! |!>(! G6!>)! ::!mf! b2 (ga bc') | (b2 a2 g2) | f2 (gf ed) | %11
!>(! (^c3 B A2)!>)! |!p! (de fg fg) | (f2 e2 d2) | (^ce ga ga) | (g2 f2 e2) |!mf!!<(! (a4 b2) | %17
 (^c'4 d'2) | (a!<)!b) (d2 e2) |!>(! d6!>)! |!p! d2 (Bc dg) | (g2 f2 e2) | d2 (ed cd) | %23
 (c2 B2 A2) | .g2 (B2 e2) | .d2 (F2 G2) |!<(! (Ac) B2 (AG)!<)! |!f! G6 :| %28
V:2
 B2 (GA B2) | (eG dG cG) | B,2 (Bc BA) | (A2 G2 F2) | B z B z e z | (G2 F2 G2) | (EA) G2 (FG) | %7
 G6 :: d2 (Bc de) | (dg cf Bd) | (Ad BA GF) | (F E2) (D ^C2) | (d^c de de) | (f2 e2 d2) | %14
 (E^c ef ef) | (g2 f2 e2) | (fd ^cd) (gd) | (ad ^cd) (bd) | d2 (FA G^c) | (d2 d)=c BA | %20
 B2 (GA B2) | (eG dG cG) | B,2 (Bc BA) | (A2 G2 F2) | B z B z e z | (G2 F2 G2) | (EA) G2 (FG) | %27
 G6 :| %28
V:3
 D6 | x6 | x6 | D6 | x6 | d2 x4 | x6 | x6 :: x6 | (B2 A2 G2) | [FA] x5 | x6 | (FG) A4 | Ad G^c FA | %14
 x6 | eA dA ^cA | x6 | x6 | x6 | FA FA GF | G2 x4 | x6 | x6 | D6 | x6 | d2 x4 | x6 | x6 :| %28
V:4
!p! G,,4 z2 | G,4 z2 | G,,4 z2 | (G,2 G,,2 D,2) | (EG DG CG) | (B,D A,D B,D) | C,2 D,2 D,2 | %7
 B,2 D,2 G,,2 ::!mf! G,4 z2 | G,4 z2 | D2 G,3 ^G, | A,2 A,,2 A,,2 | A,,4 z2 | D2 E2 z2 | A,4 z2 | %15
 ^C2 D2 z2 |!mf! D4 z2 | z6 | D2 (A,4 | A,2) D,,2 z2 |!p! G,,4 z2 | G,4 z2 | G,,4 z2 | %23
 (G,2 G,,2 D,2) | (EG DG CG) | (B,D A,D B,D) | C,2 D,2 D,2 |!f! B,2 D,2 G,,2 :| %28
V:5
 x6 | x6 | x6 | x6 | x6 | x6 | C2 D2 D2 | G,2 x4 :: G,,4 x2 | G,,4 x2 | D,2 G,,3 ^G,, | %11
 A,,2 A,,,2 A,,,2 | x6 | A,4 F2 | x2 A,,2 x2 | A,4 E2 | x2 D,2 x2 | x6 | F,G, A,2 A,,2 | D,2 x4 | %20
 x6 | x6 | x6 | x6 | x6 | x6 | C2 D2 D2 | G,2 x4 :| %28

